X:41
T:Monferrina
C:Tre Martelli: Brz Carv 1
C:Valle Bormida
M:6/8
L:1/8
K:G
DEF|GFG BGB|d2d ded|c2c cdc|B2G DEF|\
GFG BGB|d2d ded|fed cBA|G3:|
|:g2g|~f2e f2e|~d2B d2d|cAA e2e|~d2B g2g|\
~f2e f2e|~d2B d2e|fed cBA|G3:|
